assets/icons/qvision/linked_camera.svg

<svg xmlns="http://www.w3.org/2000/svg" height="24" viewBox="0 0 24 24" width="24"><circle cx="12" cy="14" r="3.2"/><circle cx="12" cy="14" fill="none" r="5"/><path d="M16 3.33c2.58 0 4.67 2.09 4.67 4.67H22c0-3.31-2.69-6-6-6v1.33M16 6c1.11 0 2 .89 2 2h1.33c0-1.84-1.49-3.33-3.33-3.33V6"/><path d="M24 0H0v24h24V0z" fill="none"/><path d="M17 9c0-1.11-.89-2-2-2V4H9L7.17 6H4c-1.1 0-2 .9-2 2v12c0 1.1.9 2 2 2h16c1.1 0 2-.9 2-2V9h-5zm-5 10c-2.76 0-5-2.24-5-5s2.24-5 5-5 5 2.24 5 5-2.24 5-5 5z"/></svg>

<svg width="24" height="24" viewBox="0 0 24 24" fill="none" xmlns="http://www.w3.org/2000/svg">
<g clip-path="url(#clip0_147_3545)">
<path d="M12 17.2C13.7674 17.2 15.2 15.7673 15.2 14C15.2 12.2327 13.7674 10.8 12 10.8C10.2327 10.8 8.80005 12.2327 8.80005 14C8.80005 15.7673 10.2327 17.2 12 17.2Z" fill="#323232"/>
<path d="M16 3.33C18.58 3.33 20.67 5.42 20.67 8H22C22 4.69 19.31 2 16 2V3.33ZM16 6C17.11 6 18 6.89 18 8H19.33C19.33 6.16 17.84 4.67 16 4.67V6Z" fill="#323232"/>
<path d="M17 9C17 7.89 16.11 7 15 7V4H9L7.17 6H4C2.9 6 2 6.9 2 8V20C2 21.1 2.9 22 4 22H20C21.1 22 22 21.1 22 20V9H17ZM12 19C9.24 19 7 16.76 7 14C7 11.24 9.24 9 12 9C14.76 9 17 11.24 17 14C17 16.76 14.76 19 12 19Z" fill="#323232"/>
</g>
<defs>
<clipPath id="clip0_147_3545">
<rect width="24" height="24" fill="white"/>
</clipPath>
</defs>
</svg>
